X: 41
T:The Quaker
R:reel
C:Trad
S:Bear Sessions
M:4/4
L:1/8
K:G
A2|B2B2 AGFE|E2 D2 D3 E|F2 F2 FEFG|A2G2G3B|
  |d2edc2B2|A2E2E2c2|BAGFE2F2|G4G2:|
K:D
FG|A2A2B2B2| AGFGA2BA|GFEFG2AG|FEDEF3G|
  |A2A2B2B2|AGFGA2BA|GFEF GABc|d6 FG|
  |A2A2B2B2| AGFGA2BA|GFEFG2AG|FEDEF3G|
  |A2A2B2B2|AGFGA2BA|GFEF GABc|d4c4:|
